X:1
T:Bay of Fundy II
C:Bill Guest
M:4/4
K:D
fg |"D"a2 ab afdf |afbf a2 ef |"C"g2ga ge=ce |geae g2 fg |
"D"a2 ab afdf |afbf a2 ef |"G"gfeg "D"fedf |"A7"edce "D"d2 :|
|: dB |"D"Adfd Adfd |"G"Bdgd Bdgd |"D"Adfd Adfd |"Em"e2ef "A"edcB |
"D"Adfd Adfd |"G"Bdgd Bdgd |"D"fedf "A7"edce |"D"d2 f2 d2 :|
